src/assets/SmileasyPaymentPlan/2.svg

<svg height="40" viewBox="0 0 40 40" width="40" xmlns="http://www.w3.org/2000/svg"><g fill="none" fill-rule="evenodd"><path d="m25.0332031 27v-1.9892578h-6.8085937l3.3735351-3.5683594c1.0322266-1.1347656 1.7841797-2.081543 2.2558594-2.840332.4716797-.7587891.7075195-1.5756836.7075195-2.4506836 0-1.3056641-.4101562-2.3481445-1.2304687-3.1274414s-1.9619141-1.1689453-3.4248047-1.1689453c-1.5996094 0-2.845459.4494629-3.7375488 1.3483886-.8920899.8989258-1.3381348 2.0388184-1.3381348 3.4196778h2.4916992c0-.881836.2084961-1.5637207.6254883-2.0456543s1.0698242-.7229004 1.9584961-.7229004c.6767578 0 1.206543.222168 1.5893555.6665039s.5742187 1.0083008.5742187 1.6918945c0 .5400391-.1469726 1.0817871-.440918 1.6252442-.2939453.543457-.8442382 1.2595214-1.6508789 2.1481933l-4.8603515 5.3012696v1.7124023z" fill="#fff" fill-rule="nonzero"/><circle cx="20" cy="20" r="19" stroke="#fff" stroke-width="2"/></g></svg>

<?xml version="1.0" encoding="UTF-8"?>
<svg width="40px" height="40px" viewBox="0 0 40 40" version="1.1" xmlns="http://www.w3.org/2000/svg" xmlns:xlink="http://www.w3.org/1999/xlink">
    <title>Group 11</title>
    <g id="Design" stroke="none" stroke-width="1" fill="none" fill-rule="evenodd">
        <g id="Smileeasy-Payment-Plan" transform="translate(-578.000000, -4789.000000)">
            <g id="How-it-works" transform="translate(3.000000, 3889.000000)">
                <g id="calculation" transform="translate(463.000000, 868.000000)">
                    <g id="Group-11" transform="translate(112.000000, 32.000000)">
                        <path d="M25.0332031,27 L25.0332031,25.0107422 L18.2246094,25.0107422 L21.5981445,21.4423828 C22.6303711,20.3076172 23.3823242,19.3608398 23.8540039,18.6020508 C24.3256836,17.8432617 24.5615234,17.0263672 24.5615234,16.1513672 C24.5615234,14.8457031 24.1513672,13.8032227 23.3310547,13.0239258 C22.5107422,12.2446289 21.3691406,11.8549805 19.90625,11.8549805 C18.3066406,11.8549805 17.060791,12.3044434 16.1687012,13.2033691 C15.2766113,14.1022949 14.8305664,15.2421875 14.8305664,16.6230469 L14.8305664,16.6230469 L17.3222656,16.6230469 C17.3222656,15.7412109 17.5307617,15.0593262 17.9477539,14.5773926 C18.3647461,14.095459 19.0175781,13.8544922 19.90625,13.8544922 C20.5830078,13.8544922 21.112793,14.0766602 21.4956055,14.5209961 C21.878418,14.965332 22.0698242,15.5292969 22.0698242,16.2128906 C22.0698242,16.7529297 21.9228516,17.2946777 21.6289062,17.8381348 C21.3349609,18.3815918 20.784668,19.0976562 19.9780273,19.9863281 L19.9780273,19.9863281 L15.1176758,25.2875977 L15.1176758,27 L25.0332031,27 Z" id="2" fill="#FFFFFF" fill-rule="nonzero"></path>
                        <circle id="Oval" stroke="#FFFFFF" stroke-width="2" cx="20" cy="20" r="19"></circle>
                    </g>
                </g>
            </g>
        </g>
    </g>
</svg>
